packages/icons/svgs/duotone/Source=off.svg

<svg width="24" height="24" viewBox="0 0 24 24" fill="none" xmlns="http://www.w3.org/2000/svg">
<path opacity="0.5" fill-rule="evenodd" clip-rule="evenodd" d="M16.13 3.80698C16.4023 3.32648 17.0125 3.15769 17.493 3.42997C20.8057 5.30718 23 8.93916 23 13C23 19.0523 18.0523 24 12 24C5.94771 24 1 19.0523 1 13C1 8.92377 3.20634 5.41 6.4855 3.4425C6.95908 3.15835 7.57334 3.31192 7.85749 3.7855C8.14164 4.25908 7.98808 4.87334 7.5145 5.15749C4.79366 6.78999 3 9.67622 3 13C3 17.9477 7.05228 22 12 22C16.9477 22 21 17.9477 21 13C21 9.66083 19.1943 6.6928 16.507 5.17002C16.0265 4.89773 15.8577 4.28748 16.13 3.80698Z" fill="black" style="fill:black;fill-opacity:1;"/>
<path fill-rule="evenodd" clip-rule="evenodd" d="M12 0C12.5523 0 13 0.447715 13 1V8C13 8.55228 12.5523 9 12 9C11.4477 9 11 8.55228 11 8V1C11 0.447715 11.4477 0 12 0Z" fill="black" style="fill:black;fill-opacity:1;"/>
</svg>

<svg xmlns="http://www.w3.org/2000/svg" width="24" height="24" viewBox="0 0 24 24"><path fill-rule="evenodd" d="M16.13 3.807a1 1 0 0 1 1.363-.377C20.806 5.307 23 8.94 23 13c0 6.052-4.948 11-11 11S1 19.052 1 13c0-4.076 2.206-7.59 5.486-9.558a1 1 0 0 1 1.029 1.715C4.794 6.79 3 9.677 3 13c0 4.948 4.052 9 9 9s9-4.052 9-9c0-3.34-1.806-6.307-4.493-7.83a1 1 0 0 1-.377-1.363" clip-rule="evenodd" opacity=".5"/><path fill-rule="evenodd" d="M12 0a1 1 0 0 1 1 1v7a1 1 0 1 1-2 0V1a1 1 0 0 1 1-1" clip-rule="evenodd"/></svg>
